src/actions/22/document-open.svg

<svg version="1.1" viewBox="0 0 22 22" xmlns="http://www.w3.org/2000/svg">
 <defs>
  <style id="current-color-scheme" type="text/css">.ColorScheme-Text { color:#363636; }</style>
 </defs>
 <path class="ColorScheme-Text" d="m4 3c-1.108 0-2 0.892-2 2v11c0 1.108 0.892 2 2 2h14c1.108 0 2-0.892 2-2v-10c0-1.108-0.892-2-2-2h-9.6289c-0.57985-0.0229-0.60474 0.076886-1.0391-0.35742-0.43381-0.43381-0.61297-0.64213-1.332-0.64258zm0 1h2c0.31116-1.7e-6 0.52033 1.383e-4 0.99805 0.4707 0.47877 0.47161 0.6388 0.5293 1 0.5293h10.002c0.554 0 1 0.446 1 1v1h-16v-2c0-0.554 0.446-1 1-1zm-1 4h16v8c0 0.554-0.446 1-1 1h-14c-0.554 0-1-0.446-1-1z" fill="currentColor"/>
</svg>

<svg xmlns="http://www.w3.org/2000/svg" viewBox="0 0 22 22">
    <path fill="currentColor" d="M4 3c-1.108 0-2 .892-2 2v11c0 1.108.892 2 2 2h14c1.108 0 2-.892 2-2V6c0-1.108-.892-2-2-2H8.371c-.58-.023-.605.077-1.039-.357C6.898 3.209 6.719 3 6 3zm0 1h2c.311 0 .52 0 .998.47.479.472.639.53 1 .53H18c.554 0 1 .446 1 1v1H3V5c0-.554.446-1 1-1zM3 8h16v8c0 .554-.446 1-1 1H4c-.554 0-1-.446-1-1z" style="color:#050505;opacity:.7"/>
</svg>
